fonts/kmap-icons/SVG_edits/texts.svg

<?xml version="1.0" encoding="utf-8"?>
<!-- Generated by IcoMoon.io -->
<!DOCTYPE svg PUBLIC "-//W3C//DTD SVG 1.1//EN" "http://www.w3.org/Graphics/SVG/1.1/DTD/svg11.dtd">
<svg version="1.1" xmlns="http://www.w3.org/2000/svg" xmlns:xlink="http://www.w3.org/1999/xlink" width="32" height="32" viewBox="0 0 32 32">
<g>
</g>
	<path d="M9 7v18h14v-18h-14zM21 23h-10v-14h10v14z" fill="#000000" />
	<path d="M10 17v-2h12v2h-12z" fill="#000000" />
	<path d="M10 21v-2h12v2h-12z" fill="#000000" />
	<path d="M10 13v-2h12v2h-12z" fill="#000000" />
</svg>

<?xml version="1.0" encoding="utf-8"?>
<!-- Generator: Adobe Illustrator 14.0.0, SVG Export Plug-In . SVG Version: 6.00 Build 43363)  -->
<!DOCTYPE svg PUBLIC "-//W3C//DTD SVG 1.1//EN" "http://www.w3.org/Graphics/SVG/1.1/DTD/svg11.dtd">
<svg version="1.1" id="Layer_1" xmlns="http://www.w3.org/2000/svg" xmlns:xlink="http://www.w3.org/1999/xlink" x="0px" y="0px"
	 width="32px" height="32px" viewBox="0 0 32 32" enable-background="new 0 0 32 32" xml:space="preserve">
<path fill-rule="evenodd" clip-rule="evenodd" fill="#231F20" d="M9,7v18h14V7H9z M21,23H11V9h10V23z"/>
<path fill-rule="evenodd" clip-rule="evenodd" fill="#231F20" d="M10,17v-2h12v2H10"/>
<path fill-rule="evenodd" clip-rule="evenodd" fill="#231F20" d="M10,21v-2h12v2H10"/>
<path fill-rule="evenodd" clip-rule="evenodd" fill="#231F20" d="M10,13v-2h12v2H10"/>
</svg>
